X: 11280
T: Dwyer's Inspiration
R: reel
M: 4/4
K: Ddorian
|:ADFA GECE|FEFG AcGc|A2dA eAde|dcA^F GCEG|
AD (3^FED A,D^FA|d^FAF GBEF|G^FED ^C~A,3|1 ^CDEC D2 d=c:|2 ^CDEC D2 d^c||
|:A~d3 de^fg|(3aba ^fa Adfg|ad^fa g2ed|cded cAGc|
[1 Add^c de^fg|ag^fa ~g3f|gea^f gbaf|ged^c Addc:|
[2 Add^c de^fg|ag^fa ~g3a|bged ^caed|^cedc Ad=cB||

